Adwaita++/status/16/network-offline.svg

<svg height="16" width="16" xmlns="http://www.w3.org/2000/svg">
  <g fill="#474747">
    <path d="m5 7c-.31 0-.615.09-.812.281l-3.594 3.719 3.656 3.719c.198.19.44.281.75.281h1v-1c0-.257-.13-.529-.312-.719l-1.282-1.281h4.594s1 0 1-1c0 0 0-1-1-1h-4.625l1.219-1.281c.182-.19.406-.462.406-.719v-1z" opacity=".35"/>
    <path d="m11 11h1.375l1.125 1.094 1.094-1.094h1.406v1.469l-1.094 1.062 1.094 1.063v1.406h-1.438l-1.062-1.063-1.063 1.063h-1.437v-1.406l1.063-1.063-1.063-1.061z"/>
    <path d="m11 9c.31 0 .615-.09.813-.281l3.593-3.719-3.656-3.719c-.198-.19-.44-.281-.75-.281h-1v1c0 .257.13.529.313.719l1.28 1.281h-4.593c-.528-.007-1 .472-1 1s.472 1.007 1 1h4.625l-1.219 1.281c-.182.19-.406.462-.406.719v1z" opacity=".35"/>
  </g>
</svg>

<svg xmlns="http://www.w3.org/2000/svg" width="16" height="16">
    <g fill="#474747">
        <path d="M5 7c-.31 0-.615.09-.812.281L.594 11l3.656 3.719c.198.19.44.281.75.281h1v-1c0-.257-.13-.529-.312-.719L4.406 12H9s1 0 1-1c0 0 0-1-1-1H4.375l1.219-1.281C5.776 8.529 6 8.257 6 8V7z" style="line-height:normal;-inkscape-font-specification:Sans;text-indent:0;text-align:start;text-decoration-line:none;text-transform:none;marker:none" color="#000" font-weight="400" font-family="Sans" overflow="visible" opacity=".35"/>
        <path d="M11 11h1.375l1.125 1.094L14.594 11H16v1.469l-1.094 1.062L16 14.594V16h-1.438L13.5 14.937 12.437 16H11v-1.406l1.063-1.063L11 12.47z" style="marker:none" color="#bebebe" overflow="visible"/>
        <path d="M11 9c.31 0 .615-.09.813-.281L15.406 5 11.75 1.281C11.552 1.091 11.31 1 11 1h-1v1c0 .257.13.529.313.719L11.593 4H7c-.528-.007-1 .472-1 1s.472 1.007 1 1h4.625l-1.219 1.281c-.182.19-.406.462-.406.719v1z" style="line-height:normal;-inkscape-font-specification:Sans;text-indent:0;text-align:start;text-decoration-line:none;text-transform:none;marker:none" color="#000" font-weight="400" font-family="Sans" overflow="visible" opacity=".35"/>
    </g>
</svg>
